coreui/free/cil-input-hdmi.svg

<svg xmlns="http://www.w3.org/2000/svg" viewBox="0 0 512 512">
  <path fill="var(--ci-primary-color, currentColor)" d="M112,16V120H80V251.492l72,157.091V496H360V408.583l72-157.091V120H400V16Zm32,32H368v72H336V80H304v40H272V80H240v40H208V80H176v40H144ZM400,244.508,328,401.6V464H184V401.6L112,244.508V152H400Z" class="ci-primary"/>
</svg>

<svg viewBox="0 0 512 512" xmlns="http://www.w3.org/2000/svg"><path d="M112 16v104H80v131.49l72 157.091v87.41h208v-87.42l72-157.091v-131.5h-32v-104Zm32 32h224v72h-32V80h-32v40h-32V80h-32v40h-32V80h-32v40h-32Zm256 196.508L328 401.6V464H184v-62.4l-72-157.092v-92.51h288Z"/></svg>
